dist/svgs/zhihu.svg

<svg xmlns="http://www.w3.org/2000/svg" viewBox="0 0 512 512"><path d="M456 120q0-3-3-3H339q-3 0-3 4v280q0 3 3 3 7 0 10 1t4.5 4 2.5 9.5 4 17.5q18-10 33.5-21t18.5-11h41q3 0 3-3V120zm35-42q2 0 4 1.5t2 3.5v208.5l-1 75.5-2 55.5-3 21.5h-78q-7 2-22 11.5T344 485q-6-16-8.5-28.5T331 444h-30q-6 0-6-5V84q0-2 2-4t4-2h190zM168 284q-2 17-5 36t-7 32l4-4q2-2 6.5-5.5T179 333q12 13 19.5 20.5t13 14.5 12 14.5T241 403l4 7q3 9 3 22 0 20-5 37h-2q-6-6-12-14t-15.5-20-24-30-36.5-44q-12 45-29.5 74.5T90 479q-7 5-21.5 11T27 496q-13 0-17-4 0-1 1-2 53-40 80.5-92T128 284H18q2-11 7-24t16-16q19 0 38 .5t53 .5q3-42 4-73t1-48H85q-3 7-6 16.5t-10 19-20 17-34 8.5q19-36 29.5-66.5t19-53 20-35T117 18q2 0 3 1-2 4-5 12t-6 17.5-6 19.5-4 17h149q6 1 9 9.5t3 21.5v9h-84q0 21-1 42t-1.5 38-1.5 28-1 12h89q3 1 7 9.5t4 29.5H168z"/></svg>

<?xml version="1.0" encoding="UTF-8" standalone="no"?><svg   xmlns:svg="http://www.w3.org/2000/svg"   xmlns="http://www.w3.org/2000/svg"   version="1.1"   width="512"   height="512"   viewBox="0 0 512 512">  <path     d="M456 120Q456 117 453 117H339Q336 117 336 121V401Q336 404 339 404H351Q352 404 354.5 414.5T360 436Q397 415 410 405L412 404H453Q456 404 456 401V120zM491 78Q493 78 495 79.5T497 83V177.5V230.5T496.5 263T496 295.5V347.5V439Q496 444 491 444H413Q406 446 391 455.5T344 485Q338 469 335.5 456.5T331 444H301Q295 444 295 439V84Q295 82 297 80T301 78H491zM168 284Q166 298 165.5 306.5T161 329Q160 333 158 343Q157 347 156 352L160 348Q162 346 166.5 342.5T179 333Q191 346 198.5 353.5T211.5 368T223.5 382.5T241 403L245 410Q250 421 248.5 438.5T243 469H241Q235 463 229 455T213.5 435T189.5 405T153 361Q141 406 123.5 435.5T90 479Q85 483 80 485T69 489Q66 490 58 492T40.5 495.5T22.5 496.5T10 492Q10 491 11 490Q20 483 28.5 476T44 461Q69 437 87 409.5T116 347Q122 324 124 312T128 284H19H18Q20 273 25 260T41 244Q60 244 79 244.5T132 245Q135 203 136 172T137 124H85Q83 128 82 132.5T79 142Q74 156 59 169.5T15 185Q24 168 32.5 148T47.5 109T59.5 74.5T68 50Q73 39 80 34Q86 29 91.5 26T105 21Q118 17 120 19Q118 24 114.5 34T107 55Q104 63 102.5 70.5T99 85H248Q255 86 258.5 97.5T260 125H176Q176 146 175 167T173.5 205T172 233T171 245H260Q263 246 267 254.5T271 284H168z"     id="zhihu" /></svg>
